packages/katcn/src/icons/svg/next-solid.svg

<svg width="24" height="25" viewBox="0 0 24 25" fill="none" xmlns="http://www.w3.org/2000/svg">
<path d="M21.6731 9.50322L13.5859 4.35669C13.0804 4.04789 12.4739 4.25375 12.1706 4.66548C11.8673 5.18013 11.9684 5.79771 12.4739 6.10651L20.5611 11.253C20.9654 11.5618 21.0665 11.9736 21.0665 12.1794C21.0665 12.3853 21.0665 12.797 20.5611 13.1058L12.4739 18.2523C11.9684 18.5611 11.8673 19.1787 12.1706 19.6934C12.3728 20.0021 12.676 20.208 12.9793 20.208C13.1815 20.208 13.3837 20.208 13.4848 20.0021L21.572 14.8556C22.4818 14.238 22.9872 13.3117 22.9872 12.1794C23.0883 11.1501 22.5829 10.1208 21.6731 9.50322Z" fill="black"/>
<path d="M15 12.2396C15 11.1439 14.4964 10.2474 13.5899 9.64981L5.53237 4.66953C4.6259 4.0719 3.51799 4.0719 2.51079 4.56993C1.60432 5.16756 1 6.16362 1 7.25928V17.2198C1 18.3155 1.60432 19.3116 2.51079 19.8096C3.01439 20.1084 3.51799 20.208 4.02158 20.208C4.52518 20.208 5.1295 20.0088 5.53237 19.71L13.5899 14.7297C14.4964 14.2317 15 13.3352 15 12.2396Z" fill="black"/>
</svg>

<svg xmlns="http://www.w3.org/2000/svg" fill="none" viewBox="0 0 24 25"><path fill="#000" d="m21.673 9.503-8.087-5.146c-.506-.31-1.112-.103-1.415.308-.304.515-.203 1.133.303 1.442l8.087 5.146c.404.309.506.72.506.926s0 .618-.506.927l-8.087 5.146c-.506.31-.607.927-.303 1.441.202.31.505.515.808.515.203 0 .405 0 .506-.206l8.087-5.146c.91-.618 1.415-1.544 1.415-2.677.101-1.029-.404-2.058-1.314-2.676"/><path fill="#000" d="M15 12.24c0-1.096-.504-1.993-1.41-2.59L5.532 4.67c-.906-.598-2.014-.598-3.021-.1C1.604 5.168 1 6.164 1 7.26v9.96c0 1.096.604 2.092 1.51 2.59a2.87 2.87 0 0 0 1.512.398c.503 0 1.108-.2 1.51-.498l8.058-4.98c.906-.498 1.41-1.395 1.41-2.49"/></svg>
